src/assets/icons/letters,fancy,sans-o.svg

<svg width="48" height="48" viewBox="0 0 48 48" fill="none" xmlns="http://www.w3.org/2000/svg">
<g clip-path="url(#clip0_86:277)">
<path d="M36.6168 23.4545C36.6168 13.9375 30.7077 8.51136 22.9947 8.51136C15.239 8.51136 9.37251 13.9375 9.37251 23.4545C9.37251 32.929 15.239 38.3977 22.9947 38.3977C30.7077 38.3977 36.6168 32.9716 36.6168 23.4545ZM30.381 23.4545C30.381 29.6193 27.4549 32.9574 22.9947 32.9574C18.5202 32.9574 15.6083 29.6193 15.6083 23.4545C15.6083 17.2898 18.5202 13.9517 22.9947 13.9517C27.4549 13.9517 30.381 17.2898 30.381 23.4545Z" fill="black"/>
</g>
<defs>
<clipPath id="clip0_86:277">
<rect width="48" height="48" fill="white"/>
</clipPath>
</defs>
</svg>

<svg xmlns="http://www.w3.org/2000/svg" width="48" height="48" fill="none" viewBox="0 0 48 48">
  <g clip-path="url(#clip0_86:277)">
    <path fill="#000" d="M36.617 23.454c0-9.517-5.91-14.943-13.622-14.943-7.756 0-13.622 5.427-13.622 14.944 0 9.474 5.866 14.943 13.622 14.943 7.713 0 13.622-5.426 13.622-14.944zm-6.236 0c0 6.165-2.926 9.503-7.386 9.503-4.475 0-7.387-3.338-7.387-9.503 0-6.164 2.912-9.502 7.387-9.502 4.46 0 7.386 3.338 7.386 9.502z"/>
  </g>
  <defs>
    <clipPath id="clip0_86:277">
      <path fill="#fff" d="M0 0h48v48H0z"/>
    </clipPath>
  </defs>
</svg>
